src/assets/site/social_icons/github.svg

<?xml version="1.0" encoding="UTF-8"?>
<svg width="40px" height="40px" viewBox="0 0 44 44" version="1.1" xmlns="http://www.w3.org/2000/svg" xmlns:xlink="http://www.w3.org/1999/xlink">
    <!-- Generator: Sketch 47.1 (45422) - http://www.bohemiancoding.com/sketch -->
    <title>github</title>
    <desc>Created with Sketch.</desc>
    <defs>
        <circle id="path-1" cx="22" cy="22" r="22"></circle>
    </defs>
    <g id="Social-Icons" stroke="none" stroke-width="1" fill="none" fill-rule="evenodd">
        <g id="social-icons" transform="translate(-160.000000, -280.000000)">
            <g id="github" transform="translate(160.000000, 280.000000)">
                <rect id="Rectangle" x="0" y="0" width="44" height="44"></rect>
                <g id="Oval">
                    <use fill="#2E3338" fill-rule="evenodd" xlink:href="#path-1"></use>
                    <circle stroke="#FBFBFB" stroke-width="2" cx="22" cy="22" r="21"></circle>
                </g>
                <path d="M10,22.3044338 C10,27.7398363 13.4380429,32.3519218 18.2065134,33.9789169 C18.8069002,34.0922174 19.0256914,33.7122831 19.0256914,33.3859777 C19.0256914,33.0936624 19.015378,32.3201977 19.0094846,31.2936952 C15.671629,32.0369464 14.9673716,29.6440399 14.9673716,29.6440399 C14.4214985,28.2224964 13.634734,27.8440727 13.634734,27.8440727 C12.5451978,27.0804274 13.7172412,27.0962895 13.7172412,27.0962895 C14.921698,27.1831532 15.555235,28.3644997 15.555235,28.3644997 C16.6263544,30.2445326 18.364161,29.7014455 19.0477915,29.3864702 C19.1568188,28.5911007 19.4669572,28.0495243 19.8095092,27.741347 C17.1449707,27.4309036 14.3434114,26.3756983 14.3434114,21.660887 C14.3434114,20.3171431 14.8111974,19.2188837 15.5788084,18.3585552 C15.4557844,18.0473565 15.0439854,16.7965191 15.6966758,15.1030543 C15.6966758,15.1030543 16.7044415,14.7714615 18.9962246,16.3637112 C19.9538967,16.0910346 20.9800792,15.9543187 22.0003683,15.9497867 C23.0199208,15.9543187 24.0461033,16.0910346 25.0052488,16.3637112 C27.2955585,14.7714615 28.3018509,15.1030543 28.3018509,15.1030543 C28.9560146,16.7965191 28.5442156,18.0473565 28.4211916,18.3585552 C29.1902759,19.2188837 29.6543786,20.3171431 29.6543786,21.660887 C29.6543786,26.3870284 26.8491359,27.4271269 24.1757574,27.7322829 C24.6067098,28.1122172 24.9897787,28.8630219 24.9897787,30.0103782 C24.9897787,31.6555014 24.9757819,32.9826279 24.9757819,33.3859777 C24.9757819,33.7153044 25.1916265,34.0975048 25.8008533,33.9774062 C30.5649038,32.3473898 34,27.7390809 34,22.3044338 C34,15.5086701 28.6267227,10 21.998895,10 C15.3732773,10 10,15.5086701 10,22.3044338 Z" id="Shape" fill="#FBFBFB"></path>
            </g>
        </g>
    </g>
</svg>

<svg width="44" height="44" xmlns="http://www.w3.org/2000/svg" xmlns:xlink="http://www.w3.org/1999/xlink"><defs><circle id="a" cx="22" cy="22" r="22"/></defs><g fill="none" fill-rule="evenodd"><path d="M0 0h44v44H0z"/><g><use fill="#2E3338" xlink:href="#a"/><circle stroke="#FBFBFB" stroke-width="2" cx="22" cy="22" r="21"/></g><path d="M10 22.3c0 5.44 3.44 10.05 8.2 11.68.6.11.83-.27.83-.6L19 31.3c-3.34.75-4.04-1.65-4.04-1.65-.55-1.42-1.34-1.8-1.34-1.8-1.08-.76.09-.74.09-.74 1.2.08 1.84 1.26 1.84 1.26 1.07 1.88 2.8 1.34 3.49 1.03.1-.8.42-1.34.76-1.65-2.67-.3-5.47-1.36-5.47-6.08 0-1.34.47-2.44 1.24-3.3a4.53 4.53 0 0 1 .12-3.26s1-.33 3.3 1.26a11.23 11.23 0 0 1 6 0c2.3-1.59 3.3-1.26 3.3-1.26.66 1.7.24 2.95.12 3.26a4.82 4.82 0 0 1 1.23 3.3c0 4.73-2.8 5.77-5.47 6.07.43.38.81 1.13.81 2.28l-.01 3.38c0 .33.21.7.82.59A12.28 12.28 0 0 0 34 22.3C34 15.5 28.63 10 22 10s-12 5.5-12 12.3z" fill="#FBFBFB"/></g></svg>
